!!!OTL: Shiyue hongdeng
!!!ARE: Asia, China,ÿQinghai Xiunhua
!! I, 228
!!!SCT: C1859
!!!YEM: Copyright 1995, estate of Helmut Schaffrath.
**kern
*ICvox
*Ivox
*M2/4
*k[f#]
*G:
{8ee
4ee
8dd
=1
2ee
=2
2ee
=3
8gg
8ee
8dd
16b
16dd
=4
4b
8b
8dd}
=5
{4ee
8gg
8ee
=6
8dd
16ee
16dd
8b
8dd
=7
8.dd
16ee
8b
8a
=8
8g
16a
16g
8e
8g
=9
8a
16a
16b
8g
8a}
=10
{4.b
8dd
=11
8dd
8b
8a
8g
=12
4.e
8g}
=13
{8a
8b
8g
8a
=14
4b
8b
8dd
=15
8dd
8b
8a
8g
=16
4e
8e
8g}
=17
{8.a
16b
8g
8a
=18
4.b
8dd
=19
8a
8b
8a
8g
=20
2e
=21
4e
4r}
==
!!!AGN: Shange
!! Sala
!!!ONB: ESAC (Essen Associative Code) Database: SENGANSU
!!!AMT: simple duple
!!!AIN: vox
!!!EED: Helmut Schaffrath
!!!EEV: 1.0
*-
